public/images/hashed/18225cc915775e3770933d362876aa89.svg

<svg xmlns="http://www.w3.org/2000/svg" width="80" height="80"><defs><linearGradient id="a" x1="0%" x2="100%" y1="100%" y2="0%"><stop offset="0%" stop-color="#BD0816"/><stop offset="100%" stop-color="#FF5252"/></linearGradient></defs><g fill="none" fill-rule="evenodd"><path fill="url(#a)" d="M0 0h80v80H0z"/><path fill="#FFF" d="M34 51h3v-2h-3v2Zm-9 0h7v-2h-7v2Zm0-5h11v-2H25v2Zm40 12V39h-2v14a1 1 0 0 1-1 1H42a1 1 0 0 1-1-1V39H22v19h43Zm-20.926-6h15.844c-.438-3.017-2.74-5.716-5.766-6.675a5.678 5.678 0 0 1-2.201.454c-.754 0-1.5-.157-2.195-.447-3.036.967-5.274 3.619-5.682 6.668Zm9.635-8.67a3.582 3.582 0 0 0 1.885-3.145c0-1.987-1.634-3.604-3.643-3.604-2.008 0-3.641 1.617-3.641 3.604 0 1.308.719 2.513 1.877 3.146a3.717 3.717 0 0 0 3.522-.001ZM61 33H43v15.75a10.4 10.4 0 0 1 4.808-4.784 5.558 5.558 0 0 1-1.498-3.781c0-3.09 2.531-5.604 5.641-5.604 3.111 0 5.643 2.514 5.643 5.604a5.55 5.55 0 0 1-1.49 3.767A10.48 10.48 0 0 1 61 48.787V33Zm-39-5v9h19v-5a1 1 0 0 1 1-1h20a1 1 0 0 1 1 1v5h2v-9H22Zm45-1v32a1 1 0 0 1-1 1H21a1 1 0 0 1-1-1V27a1 1 0 0 1 1-1h45a1 1 0 0 1 1 1ZM16 52h2v2h-3a1 1 0 0 1-1-1V21a1 1 0 0 1 1-1h46a1 1 0 0 1 1 1v3h-2v-2H16v30Z"/></g></svg>

<?xml version="1.0" encoding="UTF-8"?>
<svg width="80px" height="80px" viewBox="0 0 80 80" version="1.1" xmlns="http://www.w3.org/2000/svg" xmlns:xlink="http://www.w3.org/1999/xlink">
    <!-- Generator: Sketch 64 (93537) - https://sketch.com -->
    <title>Icon-Architecture/64/Arch_AWS-Directory-Service_64</title>
    <desc>Created with Sketch.</desc>
    <defs>
        <linearGradient x1="0%" y1="100%" x2="100%" y2="0%" id="linearGradient-1">
            <stop stop-color="#BD0816" offset="0%"></stop>
            <stop stop-color="#FF5252" offset="100%"></stop>
        </linearGradient>
    </defs>
    <g id="Icon-Architecture/64/Arch_AWS-Directory-Service_64" stroke="none" stroke-width="1" fill="none" fill-rule="evenodd">
        <g id="Icon-Architecture-BG/64/Security-Identity-Compliance" fill="url(#linearGradient-1)">
            <rect id="Rectangle" x="0" y="0" width="80" height="80"></rect>
        </g>
        <path d="M34,51 L37,51 L37,49 L34,49 L34,51 Z M25,51 L32,51 L32,49 L25,49 L25,51 Z M25,46 L36,46 L36,44 L25,44 L25,46 Z M65,58 L65,39 L63,39 L63,53 C63,53.552 62.553,54 62,54 L42,54 C41.447,54 41,53.552 41,53 L41,39 L22,39 L22,58 L65,58 Z M44.074,52 L59.918,52 C59.48,48.983 57.178,46.284 54.152,45.325 C53.455,45.619 52.705,45.779 51.951,45.779 C51.197,45.779 50.451,45.622 49.756,45.332 C46.72,46.299 44.482,48.951 44.074,52 L44.074,52 Z M53.709,43.33 C54.872,42.699 55.594,41.494 55.594,40.185 C55.594,38.198 53.96,36.581 51.951,36.581 C49.943,36.581 48.31,38.198 48.31,40.185 C48.31,41.493 49.029,42.698 50.187,43.331 C51.268,43.918 52.613,43.926 53.709,43.33 L53.709,43.33 Z M61,33 L43,33 L43,48.75 C44.001,46.696 45.696,44.987 47.808,43.966 C46.864,42.948 46.31,41.61 46.31,40.185 C46.31,37.095 48.841,34.581 51.951,34.581 C55.062,34.581 57.594,37.095 57.594,40.185 C57.594,41.604 57.042,42.937 56.104,43.952 C58.258,44.979 59.985,46.708 61,48.787 L61,33 Z M22,28 L22,37 L41,37 L41,32 C41,31.448 41.447,31 42,31 L62,31 C62.553,31 63,31.448 63,32 L63,37 L65,37 L65,28 L22,28 Z M67,27 L67,59 C67,59.552 66.553,60 66,60 L21,60 C20.447,60 20,59.552 20,59 L20,27 C20,26.448 20.447,26 21,26 L66,26 C66.553,26 67,26.448 67,27 L67,27 Z M16,52 L18,52 L18,54 L15,54 C14.447,54 14,53.552 14,53 L14,21 C14,20.448 14.447,20 15,20 L61,20 C61.553,20 62,20.448 62,21 L62,24 L60,24 L60,22 L16,22 L16,52 Z" id="AWS-Directory-Service_Icon_64_Squid" fill="#FFFFFF"></path>
    </g>
</svg>
